storage/app/icons/phosphoricons/thin/grid-four-thin.svg

<svg xmlns="http://www.w3.org/2000/svg" fill="currentColor" viewBox="0 0 256 256"><path d="M200 44H56a12 12 0 0 0-12 12v144a12 12 0 0 0 12 12h144a12 12 0 0 0 12-12V56a12 12 0 0 0-12-12m4 12v68h-72V52h68a4 4 0 0 1 4 4M56 52h68v72H52V56a4 4 0 0 1 4-4m-4 148v-68h72v72H56a4 4 0 0 1-4-4m148 4h-68v-72h72v68a4 4 0 0 1-4 4"/></svg>

<svg xmlns="http://www.w3.org/2000/svg" viewBox="0 0 256 256" fill="currentColor"><path d="M200,44H56A12,12,0,0,0,44,56V200a12,12,0,0,0,12,12H200a12,12,0,0,0,12-12V56A12,12,0,0,0,200,44Zm4,12v68H132V52h68A4,4,0,0,1,204,56ZM56,52h68v72H52V56A4,4,0,0,1,56,52ZM52,200V132h72v72H56A4,4,0,0,1,52,200Zm148,4H132V132h72v68A4,4,0,0,1,200,204Z"/></svg>
